X:1
T:Государственный гимн Советского Союза / России Федерации
T:Государственный гимн Советского Союза / России Федерации
T:Гимн CCCP / России
T:аранжировка Peter Jhon Njeim музыка Алекса́ндр Васи́льевич Алекса́ндров 
T:слова Серге́й Влади́мирович Михалко́в и 
T:Эль-Региста́н
C:Алекса́ндр Васи́льевич Алекса́ндров
Z:Серге́й Влади́мирович Михалко́в и Эль-Региста́н
%%score [ 1 2 ( 3 4 ) ( 5 6 ) ]
L:1/8
Q:1/4=76
M:2/4
K:C
V:1 treble nm="Soprano" snm="S."
V:2 treble nm="Alto" snm="A."
V:3 treble-8 nm="Tenor" snm="T."
V:4 treble-8 
V:5 bass nm="Bass" snm="B."
V:6 bass 
V:1
"^Торжественно. Распевно" z4 | z2 z!f! G |: c2 G3/2 A/ | B2 E E | A2 G3/2 F/ | G2 C C | %6
w: |1. Рос-|си- я свя-|щен- на- я|на- ша дер-|жа- ва, Рос-|
w: |2. От|юж- ных мо-|рей до по-|ляр- но- го|кра- я pас-|
w: |3. Ши-|ро- кий прос-|тор для меч-|ты и для|жиз- ни гря-|
w: |4. Ros-|si- ya svya-|shchen- na- ya|na- sha der-|zha- va, Ros-|
w: |5. Ot|yuzh- nykh mo-|rey do po-|lyar- no- go|kra- ya ras-|
w: |6. Shi-|ro- kiy pros-|tor dlya mech-|ty i dlya|zhiz- ni grya-|
w: |7. O|Rus- sia, for-|ev- er your|strong sa- cred|coun- try, O|
w: |8. From|seas in the|South and up|to po- lar|bor- der our|
w: |9. For|gen- er- ous|dream- ing, for|life and for|long- ing the|
 D2 D3/2 E/ | F2"^cresc." F3/2 G/ | A2 B c | d2- d G |"^1" e2 d3/2 c/ | d2 B G | c2 B3/2 A/ | %13
w: си- я лю-|би- ма- я-|на- ша- стра-|на. _ Мо-|гу- ча- я|во- ля,- ве-|ли- ка- я-|
w: ки- ну- лись|на- ши ле-|са и по-|ля. _ Од-|на ты на|све- те! Од-|на ты та-|
w: ду- щи- е|нам от- кры-|ва- ют го-|да. _ Нам|си- лу да-|ёт на- ша|вер- ность От-|
w: si- ya lyu-|bi- ma- ya|na- sha stra-|na. _ Mo-|gu- cha- ya|vo- lya, ve-|li- ka- ya|
w: ki- nu- lis'|na- shi le-|sa i po-|lya. _ Od-|na ty na|sve- te! Od-|na ty ta-|
w: du- shchi- ye|nam ot- kry-|va- yut go-|da. _ Nam|si- lu da-|yot na- sha|ver- nost' Ot-|
w: Rus- sia, for-|ev- er the|land that we|love. _ The|fame that is|great and the|will that is|
w: woods and our|mead- ows have|stretched far a-|way. _ A-|lone in the|whole world, you|stand one and|
w: years ap- *|proach- ing give|us am- ple|scope. _ With|faith in our|Home- land we|are get- ting|
 B2 E E | A2 G3/2 F/ | G2 C3/2 C/ | c2 B3/2 A/ |!<(! G4!<)! | %18
w: сла- ва тво-|ё- дос- то-|я- нье на-|все- вре- ме-|на!|
w: ка- я хра-|ни- ма- я|Бо- гом род-|на- я зем-|ля!|
w: чиз- не. Так|бы- ло, так|есть и так|бу- дет всег-|да!|
w: sla- va tvo-|yo dos- to-|ya- n'ye na|vse vre- me-|na!|
w: ka- ya khra-|ni- ma- ya|Bo- gom rod-|na- ya zem-|lya!|
w: chiz- ne. Tak|by- lo, tak|yest' i tak|bu- det vseg-|da!|
w: might- y so|be they thy|treas- ure in|ag- es to|come!|
w: on- ly! By|God saved as|ev- er our|dear na- tive|land!|
w: strong- er it|was so, it|is so and|it will be|so!|
[M:4/4]!ff!"^2" [ce]4 ([Bd][Ac]) ([GB][Ac]) | [Bd]3 G G4 | [Ac]4 ([GB][^FA]) ([EG][FA]) | %21
w: |||
w: Славь- ся _ о- *|те- чес- тво|на- ше _ сво- *|
w: |||
w: |||
w: Slav'- sya _ o- *|te- ches- tvo|na- she _ svo- *|
w: |||
w: |||
w: Praised be _ the _|Fa- ther- land,|cher- ish- * ing _|
w: |||
 [GB]3 E E2 z2 | c2 A3/2 B/ c2 A3/2 B/ | c2 A c f2- f z |"^3"!ff! f4 (ed) ([Ac][Bd]) | [ce]3 c c4 | %26
w: |||||
w: бод- но- е.|Брат- ских на- ро- дов со-|юз ве- ко- вой. _|Пред- ка- * ми _|дан- на- я|
w: |||||
w: |||||
w: bo- dno- ye.|Brat- skikh na- ro- dov so-|yuz ve- ko- voy. _|Pred- ka- * mi _|dan- na- ya|
w: |||||
w: |||||
w: home of ours.|Cen- turies- old un- ion of|peo- ples in free. _|Pop- u- * lar _|wis- dom giv-|
w: |||||
 d4 (cB) (AB) | c3 A A4 |1,2 c2 B3/2 A/ G2 C3/2 C/ | c2 B3/2 A/ G2 z G :|3 c2 B3/2 A/ G2 C3/2 C/ | %31
w: |||||
w: муд- рость _ на- *|род- на- я.|Славь- ся, стра- на, мы гор-|дим- ся то- бой! 2. От|Славь- ся, стра- на, мы гор-|
w: |||* * * * 3. Ши-||
w: |||||
w: mud- rost' _ na- *|rod- na- ya.|Slav'- sya, stra- na, my gor-|dim- sya to- boy! 5. Ot|Slav'- sya, stra- na, my gor-|
w: |||* * * * 6. Shi-||
w: |||||
w: en to us by _|an- ces- tors.|Praised be our coun- try, and|we’re proud of thee! 8. From|Praised be our coun- try, and|
w: |||* * * * 9. For||
 G4!<(! A2!<)! B2 | c4- c z z2 |] %33
w: ||
w: дим- ся то-|бой! _|
w: ||
w: ||
w: dim- sya to-|boy! _|
w: ||
w: ||
w: we’re proud of|thee! _|
w: ||
V:2
 z4 | z2 z G |: E2 E3/2 E/ | E2 E E | C2 C3/2 C/ | C2 C C | D2 D3/2 D/ | D2 D3/2 E/ | F2 G [GA] | %9
w: |10. Со-|юз не- ру-|ши- мый рес-|пу- блик сво-|бод- ных спло-|ти- ла на-|ве- ки Ве-|ли- ка- я|
w: |11. Сквозь|гро- зы си-|я- ло нам|солн- це сво-|бо- ды, И|Ле- нин ве-|ли- кий нам|путь о- за-|
w: |12. Впо-|бе- де бесс-|мерт- ных и-|дей ком- му-|низ- ма мы|ви- дим гря-|ду- щее _|на- шей стра-|
w: |13. So-|yuz ne- ru-|shi- myy res-|pu- blik svo-|bod- nykh splo-|ti- la na-|ve- ki Ve-|li- ka- ya|
w: |14. Skvoz'|gro- zy si-|ya- lo nam|soln- tse svo-|bo- dy, I|Le- nin ve-|li- kiy nam|put' o- za-|
w: |15. Vpo-|be- de bess-|mert- nykh i-|dey kom- mu-|niz- ma my|vi- dim grya-|du- shcheye _|na- shey stra-|
w: |16. Un-|break- a- ble|Un- ion of|free- born Re-|pub- lics great|Rus- sia has|weld- ed for-|ev- er to|
w: |17. Through|tem- pests the|sun- rays of|free- dom have|cheered us, A-|long the new|path where great|Len- in did|
w: |18. In|the vic- tory|of Com- mu-|ni- sm's im-|mor- tal i-|deal we see|the fu- ture|of our dear|
 [GB]2- [GB] G | [Gc]2 G3/2 [GA]/ | [GB]2 G G | E2 E3/2 E/ | E2 E E | C2 C3/2 C/ | C2 C3/2 C/ | %16
w: Русь. _ Да|здра- вству- ет|соз- дан- ный|во- лей на-|ро- дов е-|ди- ный, мо-|гу- чий Со-|
w: рил: _ На|пра- во- е|де- ло он|под- нял на-|ро- ды, На|труд и на|под- ви- ги|
w: ны, _ И|Кра- сно- му|зна- ме- ни|слав- ной От-|чи- зны мы|бу- дем всег-|да без- за-|
w: Rus'. _ Da|zdra- vstvu- yet|soz- dan- nyy|vo- ley na-|ro- dov ye-|di- nyy, mo-|gu- chiy So-|
w: ril: _ Na|pra- vo- ye|de- lo on|pod- nyal na-|ro- dy, Na|trud i na|pod- vi- gi|
w: ny, _ I|Kra- sno- mu|zna- me- ni|slav- noy Ot-|chi- zny my|bu- dem vseg-|da bez- za-|
w: stand. _ Cre-|at- ed in|strug- gle by|will of the|peo- ple u-|nit- ed and|might- y, our|
w: lead: _ To|a right- eo-|us cause he|raised up the|peo- ples, In-|spired them to|la- bour and|
w: land, _ And|to her _|flut- ter- ing|scar- let _|ban- ner self-|less- ly _|true we al-|
 D2 E3/2 ^F/ | G4 |[M:4/4] G4 G2 G2 | G3 G G4 | E4 E2 E2 | E3 E E2 z2 | A2 F3/2 G/ A2 F3/2 G/ | %23
w: вет- ский Со-|юз!||||||
w: нас вдо- хно-|вил!|Славь- ся, О-|те- чес- тво|на- ше сво-|бо- дно- е,|Друж- бы на- ро- дов на-|
w: вет- но вер-|ны!||||||
w: vet- skiy So-|yuz!||||||
w: nas vdo- khno-|vil!|Slav'- sya, O-|te- ches- tvo|na- she svo-|bo- dno- ye,|Druzh- by na- ro- dov na-|
w: vet- no ver-|ny!||||||
w: So- vi- et|land!||||||
w: va- lou- rous|deed!|Sing to the|Moth- er- land,|Home of the|free, _ _|Bul- wark of peo- ples in|
w: ways shall _|stand!||||||
 A2 F A c2- c z | [Ac]4 [GB]2 G2 | G3 G G4 | A4 ^G2 (^FG) | A3 E E4 |1,2 A2 G3/2 F/ G2 C3/2 C/ | %29
w: ||||||
w: дё- жный оп- лот! _|Пар- ти- я|Ле- ни- на|си- ла на- *|род- на- я|нас ктор- жест- ву ком- му-|
w: ||||||
w: ||||||
w: do- zhnyy op- lot! _|Par- ti- ya|Le- ni- na|si- la na- *|rod- na- ya|nas ktor- zhest- vu kom- mu-|
w: ||||||
w: ||||||
w: broth- er- hood strong! _|O Par- ty|of Len- in,|the strength of _|the peo- ple|to Com- mu- ni- sm's tri-|
w: ||||||
 D2 ^F3/2 F/ G2 z G :|3 A2 G3/2 F/ G2 C3/2 C/ | G4 A2 G2 | G4- G z z2 |] %33
w: ||||
w: низ- ма ве- дёт! 11. Сквозь|нас ктор- жест- ву ком- му-|низ- ма ве-|дёт! _|
w: * * * * 12. Впо-||||
w: ||||
w: niz- ma ve- dot! 14. Skvoz'|nas ktor- zhest- vu kom- mu-|niz- ma ve-|dot! _|
w: * * * * 15. Vpo-||||
w: ||||
w: umph lead us on! 17. Through|to Com- mu- ni- sm's tri-|umph lead us|on! _|
w: * * * * 18. In||||
V:3
 z4 | z2 z G |: c2 G3/2 A/ | B2 G G | A2 A3/2 A/ | G2 G G | [FA]2 [FA]3/2 [FA]/ | A2 A3/2 A/ | %8
w: |19. Со-|юз не- ру-|ши- мый рес-|пуб- лик сво-|бод- ных спло-|ти- ла на-|ве- ки Ве-|
w: |20. Сквозь|гро- зы си-|я- ло нам|солн- це сво-|бо- ды, И|Ле- нин ве-|ли- кий нам|
w: |21. Мы|ар- ми- ю|на- шу рас-|ти- ли всра-|жень- ях. За-|хват- чи- ков|под- лых сдо-|
w: |22. So-|yuz ne- ru-|shi- myy res-|pub- lik svo-|bod- nykh splo-|ti- la na-|ve- ki Ve-|
w: |23. Skvoz'|gro- zy si-|ya- lo nam|soln- tse svo-|bo- dy, I|Le- nin ve-|li- kiy nam|
w: |24. My|ar- mi- yu|na- shu ras-|ti- li vsra-|zhen'- yakh. Za-|khvat- chi- kov|pod- lykh sdo-|
w: |25. U-|nit- ed for-|ev- er in|friend- ship and|la- bour our|might- y re-|pub- lics will|
w: |26. Through|days dark and|storm- y where|Great Len- in|lead us, Our|eyes saw the|bright sun of|
w: |27. We|fought for the|fu- ture, de-|stroyed the in-|vad- ers. And|brought to our|home- land the|
 [Ad]2 [Bd] c | [Bd]2- [Bd] G | [ce]2 [Gd]3/2 [Ac]/ | [Bd]2 B G | c2 [EB]3/2 [^FA]/ | [GB]2 E E | %14
w: ли- ка- я|Русь. _ Да|здрав- ству- ет|со- здан- ный|во- лей на-|ро- дов е-|
w: путь о- за-|рил: _ Нас|вы- рас- тил|Ста- лин на|вер- ность на-|ро- ду, На|
w: ро- ги сме-|тём! _ Мы|вбит- вах ре-|ша- ем судь-|бу по- ко-|ле- ний, Мы|
w: li- ka- ya|Rus' _ Da|zdrav- stvu- yet|so- zdan- nyy|vo- ley na-|ro- dov ye-|
w: put' o- za-|ril: _ Nas|vy- ras- til|Sta- lin na|ver- nost' na-|ro- du, Na|
w: ro- gi sme-|tom! _ My|vbit- vakh re-|sha- yem sud'-|bu po- ko-|le- niy, My|
w: ev- er en-|dure. _ The|Great So- viet|Un- ion will|live through the|ag- es the|
w: free- dom a-|bove: _ And|Sta- lin our|lead- er with|faith in the|peo- ple, In-|
w: lau- rels of|fame! _ Our|glo- ry will|live in the|mem- ory of|na- tions, And|
 A2 A3/2 A/ | G2 G3/2 G/ | c2 B3/2 A/ | G4 |[M:4/4] [ce]4 ([Bd][Ac]) ([GB][Ac]) | [Bd]3 G G4 | %20
w: ди- ный, мо-|гу- чий Со-|вет- ский Со-|юз!|||
w: труд и на|под- ви- ги|нас вдо- хно-|вил!|Славь- ся, _ О- *|те- чес- тво|
w: ксла- ве От-|чиз- ну сво-|ю по- ве-|дём!|||
w: di- nyy, mo-|gu- chiy So-|vet- skiy So-|yuz!|||
w: trud i na|pod- vi- gi|nas vdo- khno-|vil!|Slav'- sya, _ O- *|te- ches- tvo|
w: ksla- ve Ot-|chiz- nu svo-|yu po- ve-|dom!|||
w: dream of a|peo- ple their|for- tress se-|cure!|||
w: spired us to|build up the|land that we|love!|Long live our So- viet|moth- er- land,|
w: all gen- er-|a- tions will|ho- nour her|name!|||
 [Ac]4 ([GB][^FA]) ([EG][FA]) | [GB]3 E E2 z2 | c2 A3/2 B/ c2 A3/2 B/ | c2 A c [cf]2- [cf] z | %24
w: ||||
w: на- ше _ сво- *|бо- дно- е,|Друж- бы на- ро- дов на-|дёж- ный оп- лот! _|
w: ||||
w: ||||
w: na- she _ svo- *|bo- dno- ye,|Druzh- by na- ro- dov na-|dozh- nyy op- lot! _|
w: ||||
w: ||||
w: Built by the peo- ple's|might- y hand,|Long live our peo- ple, u-|nit- ed and free! _|
w: ||||
 [cf]4 (ed) ([Ac][Bd]) | [ce]3 [ce] [ce]4 | [df]4 (cB) (AB) | [ce]3 c c4 |1,2 %28
w: ||||
w: Зна- мя _ со- *|вет- ско- е,|зна- мя _ на- *|ро- дно- е|
w: ||||
w: ||||
w: Zna- mya _ so- *|vet- sko- ye,|zna- mya _ na- *|ro- dno- ye|
w: ||||
w: ||||
w: Strong in our friend- ship|tried by fire,|Long may our crim- son|flag in- spire|
w: ||||
 c2 c3/2 c/ [Gc]2 c3/2 c/ | c2 c3/2 c/ B2 z G :|3 c2 c3/2 c/ [Gc]2 c3/2 c/ | [Bf]4 [Bf]2 [Bf]2 | %32
w: ||||
w: пусть от по- бе- ды кпо-|бе- де ве- дёт! 20. Сквозь|пусть от по- бе- ды кпо-|бе- де ве-|
w: |* * * * 21. Мы|||
w: ||||
w: pust' ot po- be- dy kpo-|be- de ve- dot! 23. Skvoz'|pust' ot po- be- dy kpo-|be- de ve-|
w: |* * * * 24. My|||
w: ||||
w: shin- ing in glo- ry for|all men to see! 26. Through|shin- ing in glo- ry for|all men to|
w: |* * * * 27. We|||
 [ce]4- [ce] z z2 |] %33
w: |
w: дёт! _|
w: |
w: |
w: dot! _|
w: |
w: |
w: see! _|
w: |
V:4
 x4 | x4 |: x4 | x4 | x4 | x4 | x4 | x4 | x4 | x4 | x4 | x4 | x4 | x4 | x4 | x4 | x4 | x4 | %18
[M:4/4] x8 | x8 | x8 | x8 | x8 | x8 | x4 B2 x2 | x8 | x4 e2 e2 | x8 |1,2 x8 | x8 :|3 x8 | x8 | %32
 x8 |] %33
V:5
 z4 | z2 z!f! G, |: [C,G,]2 [C,G,]3/2 [C,G,]/ | [E,G,]2 E, E, | F,2 F,3/2 F,/ | E,2 E, E, | %6
 D,2 D,3/2 D,/ | C,2"_cresc." C,3/2 C,/ | (C,C) B, A, | G,2- G, G, | [C,G,]2 E,3/2 E,/ | %11
 G,2 G, G, | A,2 C,3/2 C,/ | E,2 E, E, | F,2 D,3/2 D,/ | E,2 E,3/2 E,/ | %16
 [D,^F,]2 [D,E,]3/2 [D,^F,]/ |!<(! [G,,G,]4!<)! |[M:4/4]!ff! [C,G,]4 G,2 E,2 | G,3 G, G,4 | %20
 [A,,E,]4 E,2 C,2 | E,3 E, E,2 z2 | [F,A,]2 F,3/2 [F,G,]/ [F,A,]2 F,3/2 [F,G,]/ | %23
 [F,A,]2 F, [F,A,] A,2- A, z |!ff! (D,3 E,/F,/) G,2 G,2 | [C,G,]3 [E,G,] [E,G,]4 | %26
 (B,,3 C,/D,/) E,2 E,2 | A,3 A, (A,2 =G,2) |1,2 F,2 D,3/2 D,/ [E,G,]2 [E,G,]3/2 [E,G,]/ | %29
 [D,^F,]2 [D,F,]3/2 [D,F,]/ G,2 z G, :|3 F,2 D,3/2 D,/ [E,G,]2 [E,G,]3/2 [E,G,]/ | %31
 G,4!<(! G,2!<)! G,2 | [C,G,C]4- [C,G,C] z z2 |] %33
V:6
 x4 | x4 |: x4 | x4 | x4 | x4 | x4 | x4 | x4 | x4 | x4 | x4 | x4 | x4 | x4 | x4 | x4 | x4 | %18
[M:4/4] x8 | x8 | x8 | x8 | x8 | x8 | A,4 G,2 G,2 | x8 | A,4 ^G,2 (^F,G,) | x8 |1,2 x8 | x8 :|3 %30
 x8 | x8 | x8 |] %33

